X:2120
T:Gallagher's Frolics
O:england
M:6/8
L:1/8
C:Trad
R:Jig
K:D
EDE GFE | BAB dBA | BdB BAB | GFG AFD | EDE GFE | GAG dBA | BAG FAF | GE
E E3 :|
|: e2 f gfe | g2 a bge | dcd fed | faf fed | e2 f gfe | dfe dBA | BAG FA
F | GEE E3 :|


